X:6599
T:Grinders,The. JC.200
M:9/8
L:1/8
Q:120
S:John Clare,Poet,Helpstone (1793-1864)
R:Slip Jig
O:England
A:Northamptonshire
N:
N:Known as Grenadiers in the Hardy Mss
Z:P Headford
K:D
gfg edc BAG|gfg efg afd|gfg edc BAG|AAAA2Bd2B|!
AAAA2BG2E|AAAA2Bd2B|AAAA2BG2E|dBG GBdd2B:|]


